X: 307
T: Saint Anne's Reel
R: reel
Z: 2012 John Chambers <jc:trillian.mit.edu>
S: printed MS of unknown origin
M: C|
L: 1/8
K: D
e2 |\
"D"f2fg fedB | A2FA A2FA | "G"B2GB B2GB | "D"ABAG FAde |
"D"f2fg fedB | A2{BA}FA DAFA | "G"BGBd "A7"cAce | "D"d2f2 d2 :|
|: gf |\
fdfa fdfa | "Em"aggf g2gf | "A7"edcB Aceg | "D"baa^g a2a=g |
fdfa fdfa | "Em"aggf g2gf | "A7"edcB Aceg | "D"fd"A"ec "D"d2 :|

